files/resources/svgs/general/o-bell-alert.svg

<svg width="24" height="24" viewBox="0 0 24 24" fill="none" xmlns="http://www.w3.org/2000/svg">
<path d="M14.8569 17.0817C16.7514 16.857 18.5783 16.4116 20.3111 15.7719C18.8743 14.177 17.9998 12.0656 17.9998 9.75V9.04919C17.9999 9.03281 18 9.01641 18 9C18 5.68629 15.3137 3 12 3C8.6863 3 6.00001 5.68629 6.00001 9L5.99982 9.75C5.99982 12.0656 5.12529 14.177 3.68849 15.7719C5.42142 16.4116 7.24845 16.857 9.14315 17.0818M14.8569 17.0817C13.92 17.1928 12.9666 17.25 11.9998 17.25C11.0332 17.25 10.0799 17.1929 9.14315 17.0818M14.8569 17.0817C14.9498 17.3711 15 17.6797 15 18C15 19.6569 13.6569 21 12 21C10.3432 21 9.00001 19.6569 9.00001 18C9.00001 17.6797 9.0502 17.3712 9.14315 17.0818M3.12445 7.5C3.41173 5.78764 4.18254 4.23924 5.29169 3M18.7083 3C19.8175 4.23924 20.5883 5.78764 20.8756 7.5" stroke="#0F172A" stroke-width="1.5" stroke-linecap="round" stroke-linejoin="round"/>
</svg>

<svg xmlns="http://www.w3.org/2000/svg" fill="none" viewBox="0 0 24 24" stroke-width="1.5" stroke="currentColor" aria-hidden="true">
  <path stroke-linecap="round" stroke-linejoin="round" d="M14.857 17.082a23.848 23.848 0 005.454-1.31A8.967 8.967 0 0118 9.75v-.7V9A6 6 0 006 9v.75a8.967 8.967 0 01-2.312 6.022c1.733.64 3.56 1.085 5.455 1.31m5.714 0a24.255 24.255 0 01-5.714 0m5.714 0a3 3 0 11-5.714 0M3.124 7.5A8.969 8.969 0 015.292 3m13.416 0a8.969 8.969 0 012.168 4.5"/>
</svg>
